!!!!SEGMENT: pl-wn--sd-xvi-qu-273--085_gomolka-mikolaj--owa-czas-panie-przyszedl-pozadany.krn
!!!cenid: 15xx:290
!!!COM: Gomółka, Mikołaj
!!!COM-rismid: pe30013343
!!!CDT: ~1535->1591/04/30
!!!CNT: Polish
!!!GTL: Melodiae na psalterz polski
!!!OTL: LXXXV. Owa czas, Panie, przyszedł pożądany;
!!!ONB: PSALM LXXXV. Benedixisti domine terram tuam: avertisti captivitatem Iacob.
!!!PDT: 1580
!!!AGN: Sacred
!!!SMS-siglum: PL-Wn
!!!SMS-shelfmark: SD XVI.Qu.273
!!!SMS-shelfwork: 085 G
!!!NIFC-rismid:
!!!ONB-nifc: Melodiae na psalterz polski
**kern	**text	**kern	**text	**kern	**text	**kern	**text
*part4	*part4	*part3	*part3	*part2	*part2	*part1	*part1
*staff4	*staff4	*staff3	*staff3	*staff2	*staff2	*staff1	*staff1
*clefF3	*	*clefC3	*	*clefC2	*	*clefG2	*
*k[]	*	*k[]	*	*k[]	*	*k[]	*
*c:	*	*c:	*	*c:	*	*c:	*
*M2/1	*	*M2/1	*	*M2/1	*	*M2/1	*
*met(C|)	*	*met(C|)	*	*met(C|)	*	*met(C|)	*
*I"BASSUS.	*	*I"TENOR.	*	*I"ALTUS.	*	*I"CANTUS.	*
*>[A,A,B]	*	*>[A,A,B]	*	*>[A,A,B]	*	*>[A,A,B]	*
=1-	=1	=1-	=1	=1-	=1	=1-	=1
*>A	*	*>A	*	*>A	*	*>A	*
*	*^	*	*^	*	*^	*	*^
1G\	O-	Po-	1G/	O-	Po-	1g\	O-	Po-	1dd\	O-	Po-
2G\	-wa	-ćie-	2B/	-wa	-ćie-	2g\	-wa	-ćie-	2dd\	-wa	-ćie-
2A\	czàs,	-szy-	2c/	czàs,	-szy-	2e/	czàs,	-szy-	4cc\	czàs,	-szy-
.	.	.	.	.	.	.	.	.	4b\	.	.
=2-	=2	=2	=2-	=2	=2	=2-	=2	=2	=2-	=2	=2
2F#X/	pà-	-łeś	2d\	pà-	-łeś	2a\	pà-	-łeś	2a/	pà-	-łeś
2G\	-nie,	kray	2d\	-nie,	kray	2g\	-nie,	kray	2dd\	-nie,	kray
1E/	przy-	swóy	1e\	przy-	swóy	1g\	przy-	swóy	1gg\	przy-	swóy
=3-	=3	=3	=3-	=3	=3	=3-	=3	=3	=3-	=3	=3
2D/	-szedł	u-	2f\	-szedł	u-	2a\	-szedł	u-	2ff\	-szedł	u-
1G\	po-	-po-	2.g\	po-	-po-	1b\	po-	-po-	2.ee\	po-	-po-
.	.	.	4f\	.	.	.	.	.	4dd\	.	.
2B\	-żą-	-do-	4e\	-żą-	-do-	2g\	-żą-	-do-	1dd\	-żą-	-do-
.	.	.	4d\	.	.	.	.	.	.	.	.
=4-	=4	=4	=4-	=4	=4	=4-	=4	=4	=4-	=4	=4
1A\	-dà-	-bà-	1e\	-dà-	-bà-	2.a\	-dà-	-bà-	.	.	.
.	.	.	.	.	.	.	.	.	2cc\	-dà-	-bà-
.	.	.	.	.	.	4g\	.	.	.	.	.
1D/	-ny,	-ny:	1d\	-ny,	-ny:	1f#X\	-ny,	-ny:	1dd\	-ny,	-ny:
*	*v	*v	*	*v	*v	*	*v	*v	*	*v	*v
=:|!5	=5	=:|!5	=5	=:|!5	=5	=:|!5	=5
*>B	*	*>B	*	*>B	*	*>B	*
*M3/1	*	*M3/1	*	*M3/1	*	*M3/1	*
*met(C|3)	*	*met(C|3)	*	*met(C|3)	*	*met(C|3)	*
2G\	Po-	2d\	Po-	2g\	Po-	2dd\	Po-
2G\	-mó-	2B/	-mó-	2.g\	-mó-	2dd\	-mó-
2E/	-głeś	2c/	-głeś	.	.	2ee\	-głeś
.	.	.	.	4f\	-głeś	.	.
1A\	z o-	2.c/	z o-	1e\	z o-	1cc\	z o-
.	.	4B/	.	.	.	.	.
2D/	-ków	2A/	-ków	2a\	-ków	2dd\	-ków
=6-	=6	=6-	=6	=6-	=6	=6-	=6
!!LO:PB:g=original
1G\	po-	2.B/	po-	1d/	po-	1b\	po-
.	.	4A/	.	.	.	.	.
2C/	-tom-	2G/	-tom-	2g\	-tom-	2cc\	-tom-
2G\	-ko-	2B/	-ko-	2g\	-ko-	2b/	-ko-
2G\	-wi	2B/	-wi	2g\	-wi	2b/	-wi
4F/	cne-	2c/	cne-	2g\	cne-	4a/	cne-
4E/	.	.	.	.	.	4g/	.
=7-	=7	=7-	=7	=7-	=7	=7-	=7
!LO:N:vis=1	!	!LO:N:vis=1	!	!LO:N:vis=1	!	!LO:N:vis=1	!
1.D/	-mu	1.d\	-mu	1.f#X\	-mu	1.b\	-mu
=-	=	=-	=	=-	=	=-	=
*M2/1	*	*M2/1	*	*M2/1	*	*M2/1	*
*met(C|)	*	*met(C|)	*	*met(C|)	*	*met(C|)	*
1G\	Jà-	1B/	Jà-	1g\	Jà-	1dd\	Jà-
2C/	-ko-	4c/	-ko-	4e/	-ko-	2ee\	-ko-
.	.	4B/	.	4f\	.	.	.
2E/	-bo-	4A/	-bo-	1g\	-bo-	4b\	-bo-
.	.	4G/	.	.	.	4cc\	.
=8-	=8	=8-	=8	=8-	=8	=8-	=8
1D/	-we-	1A/	-we-	.	.	2.dd\	-we-
.	.	.	.	2f\	-we-	.	.
.	.	.	.	.	.	4cc\	.
000G\	-mu.	000G/	-mu.	000g\	-mu.	000b\	-mu.
==	==	==	==	==	==	==	==
*-	*-	*-	*-	*-	*-	*-	*-
!!!RDF**kern: l = terminal long
!!!system-decoration: s1,s2,s3,s4
!!!RDF**kern: > = above
!!!ENC: Marta Lawrence
!!!END: 2020-02-15
!!!URL-scan: https://polona.pl/item/melodiae-na-psalterz-polski,Nzk3MTM4ODQ/200 Scan on Polona
!!!IIIF: https://polona.pl/iiif/item/Nzk3MTM4ODQ/manifest.json
